public/assets/img/layout.svg

<svg width="24" height="24" viewBox="0 0 24 24" fill="none" xmlns="http://www.w3.org/2000/svg">
<path fill-rule="evenodd" clip-rule="evenodd" d="M13.1172 13.5C12.6797 13.75 12.3516 13.8828 12 13.8828C11.6484 13.8828 11.3203 13.75 10.875 13.5L4.84375 10C4.15625 9.59375 3.82812 9.23438 3.82812 8.67969C3.82812 8.11719 4.15625 7.75781 4.84375 7.35156L10.875 3.85156C11.3203 3.60156 11.6484 3.46875 12 3.46875C12.3516 3.46875 12.6797 3.60156 13.1172 3.85156L19.1562 7.35156C19.8438 7.75781 20.1719 8.11719 20.1719 8.67969C20.1719 9.23438 19.8438 9.59375 19.1562 10L13.1172 13.5ZM11.7109 11.9062C11.8203 11.9688 11.9062 12 12 12C12.0938 12 12.1797 11.9688 12.2891 11.9062L17.8594 8.75C17.8906 8.73438 17.9062 8.71094 17.9062 8.67969C17.9062 8.64062 17.8906 8.61719 17.8594 8.60156L12.2891 5.44531C12.1797 5.38281 12.0938 5.35156 12 5.35156C11.9062 5.35156 11.8203 5.38281 11.7109 5.44531L6.14062 8.60156C6.10938 8.61719 6.08594 8.64062 6.08594 8.67969C6.08594 8.71094 6.10938 8.73438 6.14062 8.75L11.7109 11.9062ZM12 17.7734C12.3281 17.7734 12.6172 17.625 13.0234 17.3828L19.4688 13.6016C19.9297 13.3281 20.1797 12.9844 20.1797 12.5547C20.1797 12.125 19.9219 11.7891 19.6016 11.5859L12.5781 15.6641C12.3516 15.7969 12.1719 15.8828 12 15.8828C11.8203 15.8828 11.6484 15.7969 11.4141 15.6641L4.39844 11.5859C4.07812 11.7891 3.82031 12.125 3.82031 12.5547C3.82031 12.9844 4.07812 13.3359 4.53125 13.6016L10.9766 17.3828C11.3828 17.625 11.6719 17.7734 12 17.7734ZM13.0234 21.0781C12.6172 21.3203 12.3281 21.4688 12 21.4688C11.6719 21.4688 11.3828 21.3203 10.9766 21.0781L4.53125 17.2969C4.07812 17.0312 3.82031 16.6797 3.82031 16.2422C3.82031 15.8203 4.07812 15.4844 4.39844 15.2812L11.4141 19.3594C11.6484 19.4922 11.8203 19.5781 12 19.5781C12.1719 19.5781 12.3516 19.4922 12.5781 19.3594L19.6016 15.2812C19.9219 15.4844 20.1797 15.8203 20.1797 16.2422C20.1797 16.6797 19.9219 17.0312 19.4688 17.2969L13.0234 21.0781Z" fill="#141029" fill-opacity="0.6"/>
</svg>

<svg width="24" height="24" fill="none" xmlns="http://www.w3.org/2000/svg"><path fill-rule="evenodd" clip-rule="evenodd" d="M13.117 13.5c-.437.25-.765.383-1.117.383s-.68-.133-1.125-.383L4.844 10c-.688-.406-1.016-.766-1.016-1.32 0-.563.328-.922 1.016-1.328l6.031-3.5c.445-.25.773-.383 1.125-.383s.68.133 1.117.383l6.04 3.5c.687.406 1.015.765 1.015 1.328 0 .554-.328.914-1.016 1.32l-6.039 3.5Zm-1.406-1.594c.11.063.195.094.289.094.094 0 .18-.031.29-.094l5.57-3.156c.03-.016.046-.04.046-.07 0-.04-.015-.063-.047-.078l-5.57-3.157A.57.57 0 0 0 12 5.352a.57.57 0 0 0-.29.093L6.14 8.602c-.03.015-.054.039-.054.078 0 .03.023.054.055.07l5.57 3.156ZM12 17.773c.328 0 .617-.148 1.023-.39l6.446-3.781c.46-.274.71-.618.71-1.047 0-.43-.257-.766-.577-.97l-7.024 4.08c-.226.132-.406.218-.578.218-.18 0-.352-.086-.586-.219l-7.016-4.078c-.32.203-.578.539-.578.969 0 .43.258.78.711 1.047l6.446 3.78c.406.243.695.391 1.023.391Zm1.023 3.305c-.406.242-.695.39-1.023.39-.328 0-.617-.148-1.023-.39L4.53 17.297c-.453-.266-.71-.617-.71-1.055 0-.422.257-.758.577-.96l7.016 4.077c.234.133.406.22.586.22.172 0 .352-.087.578-.22l7.024-4.078c.32.203.578.54.578.961 0 .438-.258.79-.711 1.055l-6.446 3.781Z" fill="#141029" fill-opacity=".6"/></svg>
